tools/download-figma-icons/icons/outlined-medium/moon.svg

<svg width="24" height="24" viewBox="0 0 24 24" fill="none" xmlns="http://www.w3.org/2000/svg">
<path d="M11.3797 22.1249C7.64322 22.1249 4.18122 20.0834 2.34522 16.7969C2.18997 16.5194 2.22747 16.1729 2.43822 15.9344C2.64897 15.6959 2.98872 15.6171 3.28422 15.7371C4.32297 16.1624 5.42997 16.3776 6.57522 16.3776C11.4667 16.3776 15.4462 12.3524 15.4462 7.40387C15.4462 5.84837 15.0502 4.32287 14.3017 2.99162C14.145 2.71412 14.1817 2.36837 14.3917 2.12912C14.6017 1.88987 14.9407 1.80962 15.2355 1.92812C19.1932 3.52562 21.7507 7.34237 21.7507 11.6511C21.7507 17.4261 17.0985 22.1241 11.3805 22.1241L11.3797 22.1249ZM4.85922 17.7366C6.51897 19.5531 8.87697 20.6256 11.379 20.6256C16.2697 20.6256 20.2492 16.6004 20.2492 11.6526C20.2492 8.66762 18.8197 5.95862 16.4835 4.30787C16.788 5.30387 16.9447 6.34937 16.9447 7.40537C16.9447 13.1804 12.2925 17.8791 6.57372 17.8791C5.99322 17.8791 5.42022 17.8319 4.85847 17.7374L4.85922 17.7366Z" fill="black"/>
</svg>

<svg xmlns="http://www.w3.org/2000/svg" width="24" height="24" fill="none" viewBox="0 0 24 24"><path fill="currentColor" d="M11.38 22.125c-3.737 0-7.199-2.042-9.035-5.328a.75.75 0 0 1 .94-1.06 8.6 8.6 0 0 0 3.29.64c4.892 0 8.871-4.025 8.871-8.973a9 9 0 0 0-1.144-4.412.749.749 0 0 1 .934-1.064c3.957 1.598 6.515 5.414 6.515 9.723 0 5.775-4.652 10.473-10.37 10.473zm-6.52-4.388a8.84 8.84 0 0 0 6.519 2.889c4.89 0 8.87-4.026 8.87-8.973 0-2.985-1.43-5.694-3.765-7.345.304.996.46 2.041.46 3.097 0 5.775-4.651 10.474-10.37 10.474q-.871 0-1.716-.142z"/></svg>
